brandFactory_export/1.Light/Cambiar mi clave wifi_1Light.svg

<?xml version="1.0" encoding="UTF-8"?>
<svg width="24px" height="24px" viewBox="0 0 24 24" version="1.1" xmlns="http://www.w3.org/2000/svg" xmlns:xlink="http://www.w3.org/1999/xlink">
    <title>1.Light/Cambiar mi clave wifi_1Light</title>
    <g id="Symbols" stroke="none" stroke-width="1" fill="none" fill-rule="evenodd">
        <g id="1.Light/Cambiar-mi-clave-wifi_1Light" fill="#5CB615" fill-rule="nonzero">
            <path d="M12.3966387,0.0268907563 C15.394958,0.0268907563 17.8386555,2.35630252 17.8386555,5.21680672 C17.8386555,5.40168067 17.6907563,5.54957983 17.5058824,5.54957983 C17.3210084,5.54957983 17.1731092,5.40168067 17.1731092,5.21680672 C17.1731092,2.71932773 15.0319328,0.692436975 12.3966387,0.692436975 L12.1680672,0.692436975 C9.53613445,0.692436975 7.39159664,2.72268908 7.39159664,5.21680672 L7.39007203,8.55159987 C7.52678705,8.54241595 7.66736703,8.53781513 7.81176471,8.53781513 L16.7260504,8.53781513 C17.9226891,8.53781513 18.8571429,8.85378151 19.5058824,9.47563025 C20.1781513,10.1176471 20.5243697,11.0756303 20.5411765,12.3226891 L20.5411765,19.8285714 C20.5243697,21.0756303 20.1781513,22.0336134 19.5058824,22.6756303 C18.8571429,23.3008403 17.9226891,23.6134454 16.7260504,23.6134454 L7.81176471,23.6134454 C6.61512605,23.6134454 5.68067227,23.297479 5.03529412,22.6756303 C4.36638655,22.0302521 4.02689076,21.0689076 4.02689076,19.8252101 L4.0302521,12.8638655 C4.02913165,12.7361345 4.02838469,12.6341737 4.02788671,12.5549953 L4.02689076,12.3260504 C4.02689076,11.0789916 4.36638655,10.1210084 5.03529412,9.47563025 C5.47016266,9.05661629 6.03628109,8.77648303 6.72542254,8.63831554 L6.72605042,5.22016807 C6.72605042,2.35630252 9.16638655,0.0268907563 12.1680672,0.0268907563 L12.3966387,0.0268907563 Z M16.7226891,9.25378151 L7.81176471,9.25378151 C6.80336134,9.25378151 6.03361344,9.50252101 5.52605042,9.99327731 C4.99831933,10.4907563 4.72941176,11.2773109 4.72941176,12.3260504 C4.72941176,12.3411765 4.73130252,12.4319328 4.7322479,12.6295168 L4.73277311,12.8672269 L4.72941176,19.8319328 C4.72941176,20.8773109 4.99495798,21.6672269 5.52268908,22.1747899 C6.0302521,22.6655462 6.8,22.9142857 7.80840336,22.9142857 L16.7226891,22.9142857 C18.789916,22.9142857 19.805042,21.9058824 19.8319328,19.8319328 L19.8319328,12.3361345 C19.805042,10.2621849 18.789916,9.25378151 16.7226891,9.25378151 Z M12.2823529,19.6907563 C12.6252101,19.6907563 12.8504202,19.8689076 12.8504202,20.2554622 C12.8504202,20.4403361 12.7966387,20.5747899 12.7058824,20.6689076 C12.6084034,20.7697479 12.4605042,20.8168067 12.2823529,20.8168067 C12.1042017,20.8168067 11.9596639,20.7697479 11.8588235,20.6689076 C11.7647059,20.5781513 11.7142857,20.4403361 11.7142857,20.2554622 C11.7142857,19.8689076 11.9394958,19.6907563 12.2823529,19.6907563 Z M12.2857143,16.8302521 C13.8857143,16.8302521 15.1159664,17.2605042 15.9394958,18.1142857 C16.0739496,18.2554622 16.0705882,18.4773109 15.9327731,18.6151261 C15.7915966,18.7495798 15.5697479,18.7462185 15.4319328,18.6084034 C14.7428571,17.8991597 13.6840336,17.5394958 12.2857143,17.5394958 C10.887395,17.5394958 9.81848739,17.902521 9.13277311,18.6151261 C9.06554622,18.6789916 8.97142857,18.7193277 8.87731092,18.7193277 C8.68235294,18.7193277 8.52436975,18.5613445 8.52436975,18.3663866 C8.52436975,18.2756303 8.56134454,18.1882353 8.62184874,18.1210084 C9.4487395,17.2638655 10.6789916,16.8302521 12.2857143,16.8302521 Z M12.2857143,13.4352941 C14.6621849,13.4352941 16.4840336,14.0705882 17.7008403,15.3277311 C17.8352941,15.4689076 17.8319328,15.6907563 17.6941176,15.8285714 C17.5529412,15.9630252 17.3310924,15.9596639 17.1932773,15.8218487 C16.1142857,14.7092437 14.4605042,14.1445378 12.2857143,14.1445378 C10.1008403,14.1445378 8.44705882,14.712605 7.36806723,15.8319328 C7.30084034,15.8991597 7.21008403,15.9361345 7.11260504,15.9361345 C6.91764706,15.9361345 6.75966387,15.7781513 6.75966387,15.5831933 C6.75966387,15.492437 6.79663866,15.405042 6.85714286,15.3378151 C8.07394958,14.0739496 9.90252101,13.4352941 12.2857143,13.4352941 Z" id="Cambiar-mi-clave-wifi_1Light"></path>
        </g>
    </g>
</svg>

<svg width="24" height="24" viewBox="0 0 24 24" xmlns="http://www.w3.org/2000/svg"><path d="M12.397.027c2.998 0 5.442 2.33 5.442 5.19a.331.331 0 01-.333.333.331.331 0 01-.333-.333c0-2.498-2.141-4.525-4.776-4.525h-.229c-2.632 0-4.776 2.03-4.776 4.525L7.39 8.552c.137-.01.277-.014.422-.014h8.914c1.197 0 2.131.316 2.78.938.672.642 1.018 1.6 1.035 2.847v7.506c-.017 1.247-.363 2.205-1.035 2.847-.649.625-1.583.937-2.78.937H7.812c-1.197 0-2.131-.316-2.777-.937-.669-.646-1.008-1.607-1.008-2.85l.003-6.962-.002-.309-.001-.229c0-1.247.34-2.205 1.008-2.85.435-.42 1.001-.7 1.69-.838l.001-3.418c0-2.864 2.44-5.193 5.442-5.193h.229zm4.326 9.227H7.812c-1.009 0-1.778.249-2.286.74-.528.497-.797 1.283-.797 2.332l.003.304v.237l-.003 6.965c0 1.045.266 1.835.794 2.343.507.49 1.277.74 2.285.74h8.915c2.067 0 3.082-1.01 3.109-3.083v-7.496c-.027-2.074-1.042-3.082-3.11-3.082zm-4.44 10.437c.342 0 .567.178.567.564 0 .185-.053.32-.144.414-.098.1-.245.148-.424.148-.178 0-.322-.047-.423-.148-.094-.09-.145-.229-.145-.414 0-.386.225-.564.568-.564zm.003-2.86c1.6 0 2.83.43 3.653 1.283a.358.358 0 01-.006.501.358.358 0 01-.501-.007c-.69-.709-1.748-1.069-3.146-1.069-1.399 0-2.468.364-3.153 1.076a.38.38 0 01-.256.104.353.353 0 01-.255-.598c.827-.857 2.057-1.29 3.664-1.29zm0-3.396c2.376 0 4.198.636 5.415 1.893a.358.358 0 01-.007.5.358.358 0 01-.5-.006c-1.08-1.113-2.733-1.677-4.908-1.677-2.185 0-3.839.568-4.918 1.687a.358.358 0 01-.255.104.353.353 0 01-.256-.598c1.217-1.264 3.046-1.903 5.429-1.903z" fill="#5CB615" fill-rule="nonzero"/></svg>
